src/public/assets/linkedin.svg

<svg xmlns="http://www.w3.org/2000/svg" viewBox="0 0 16 16">
  <path data-name="Icon awesome-linkedin-in" d="M3.582 15.999H.264V5.317h3.318ZM1.921 3.86a1.93 1.93 0 1 1 1.921-1.939A1.937 1.937 0 0 1 1.921 3.86ZM16 15.999h-3.31v-5.2c0-1.239-.025-2.829-1.725-2.829-1.725 0-1.989 1.346-1.989 2.739v5.29H5.659V5.317h3.182v1.457h.046a3.486 3.486 0 0 1 3.139-1.725C15.383 5.049 16 7.26 16 10.132v5.867Z" fill="#fff"/>
</svg>

<svg xmlns="http://www.w3.org/2000/svg" width="16" height="16" viewBox="0 0 16 16">
  <path id="Icon_awesome-linkedin-in" data-name="Icon awesome-linkedin-in" d="M3.582,16H.264V5.318H3.582ZM1.921,3.861A1.93,1.93,0,1,1,3.842,1.922,1.937,1.937,0,0,1,1.921,3.861ZM16,16h-3.31V10.8c0-1.239-.025-2.829-1.725-2.829-1.725,0-1.989,1.346-1.989,2.739V16H5.659V5.318H8.841V6.775h.046A3.486,3.486,0,0,1,12.026,5.05C15.383,5.05,16,7.261,16,10.133V16Z" transform="translate(0 -0.001)" fill="#fff"/>
</svg>
